X:206
T:Baron Manchausen's Quadrilles No.1. Le4.206
M:2/4
L:1/8
Q:2/4=50
B:L.Leadley MS#4 c1850
Z:Village Music Project 2016 Steve Mansfield
K:F
!pp!.a.a.a.a | .a.a.a.a | .d'.c'.b.a | g>ag z |
.a.a.a.a | .a.a.a.a | gd'c'e | f>ef z ||
!f! G2G2 | .e.d.c.B | !p! AAA^G | A2 A2 |
!ff! G2 G2 | .e.d.c.B | .d.c.d.e | ccc_B | !segno! ||
.A.A.G.F | !>(!B2 B!>)!z | .f.f.e.e | dd^c z |
AAGF | !>(!B2 B!>)!z | !p! (cG) (GA) | B>c d/c/B/A/ !D.C.! |]

